hero/solid/arrow-up.svg

<svg width="24" height="24" viewBox="0 0 24 24" fill="none" xmlns="http://www.w3.org/2000/svg">
<path fill-rule="evenodd" clip-rule="evenodd" d="M11.4697 2.46967C11.7626 2.17678 12.2374 2.17678 12.5303 2.46967L20.0303 9.96967C20.3232 10.2626 20.3232 10.7374 20.0303 11.0303C19.7374 11.3232 19.2626 11.3232 18.9697 11.0303L12.75 4.81066V21C12.75 21.4142 12.4142 21.75 12 21.75C11.5858 21.75 11.25 21.4142 11.25 21V4.81066L5.03033 11.0303C4.73744 11.3232 4.26256 11.3232 3.96967 11.0303C3.67678 10.7374 3.67678 10.2626 3.96967 9.96967L11.4697 2.46967Z" fill="#0F172A"/>
</svg>

<svg viewBox="0 0 24 24" xmlns="http://www.w3.org/2000/svg"><path fill-rule="evenodd" d="M11.47 2.47l-.001 0c.29-.3.76-.3 1.06-.001l7.5 7.5v0c.3.28.31.75.03 1.06 -.29.3-.76.31-1.06.03 -.02-.02-.03-.03-.04-.04l-6.22-6.22v16.19 0c0 .41-.34.75-.75.75 -.42 0-.75-.34-.75-.75V4.79l-6.22 6.22v0c-.29.3-.76.31-1.06.03 -.31-.29-.32-.76-.04-1.06 .01-.02.02-.03.03-.04l7.5-7.5Z"/></svg>
